!!!COM: Haydn, Franz Joseph
!!!OTL: String Quartet in G Major
!!!OPS: Opus 64
!!!ONM: No. 4
!!!OMD: Finale: Presto
!!!OMV: 4
!!!SCT: H III:66
!!!SCA: Thematisch-bibliographisches Werkevererzeichnis (A. van Hoboken)
!!!YOR: Dover Edition; reprint of Eulenburg Edition
!!!ENC: Frances Bennion
!!!CDT: 1732/3/31/-1809/5/31/
!!!CNT: Oesterreich
!!!YEC: Copyright (c) 1994, 2000 Center for Computer Assisted Research in the Humanities
!!!YEM: Rights to all derivative editions reserved.
!!!YEM: Refer to licensing agreement for further details.
!!!YEN: United States of America
**kern	**kern	**kern	**kern
*k[f#]	*k[f#]	*k[f#]	*k[f#]
*G:	*G:	*G:	*G:
*clefF4	*clefC3	*clefF	*clefF
*M6/8	*M6/8	*M6/8	*M6/8
2r	2r	2r	2r
8r	8r	8r	8r
8r	8r	8r	8d
=1	=1	=1	=1
8GG	4.r	8d 8B	8g
8G	.	8d 8B	8f#
8G	.	8d 8B	8g
8G	4.f#	4.d 4.c	4a
8G	.	.	.
8G	.	.	8dd
=2	=2	=2	=2
8GG	8g	8B 8d	8g
8G	4r	8B 8d	8f#
8G	.	8d 8B	8g
8G	4.f#	4.d 4.c	4a
8G	.	.	.
8G	.	.	8dd
=3	=3	=3	=3
8GG	8g	8B 8d	8g
8G	4r	8B 8d	8f#
8G	.	8d 8B	8g
4E	4.g	4e 4c	4cc
8C	.	8g	8ee
=4	=4	=4	=4
4BB	8b	4G	8dd
.	2r	.	8ff#
2r	.	2r	8gg
.	.	.	8bb
.	.	.	4r
.	8r	.	.
=5	=5	=5	=5
2.r	2.r	8b	8dd
.	.	16cc	16ee
.	.	16dd	16ff#
.	.	16ee	16gg
.	.	16ff#	16aa
.	.	4gg	4bb
.	.	8ff#	8aa
=6	=6	=6	=6
2.r	2.r	8ee	8gg
.	.	8dd	8ff#
.	.	8cc	8ee
.	.	8b	8dd
.	.	8a	8cc
.	.	8g	8b
=7	=7	=7	=7
2.r	8D	4f#	4a
.	8d	.	.
.	8d	8g	8b
.	8d	8b	8dd
.	8d	8a	8cc
.	8d	8g	8b
=8	=8	=8	=8
2.r	8D	4f#	4a
.	8d	.	.
.	8c#	8g	8b
.	4d	8f#	8a
.	.	4r	8r
.	8r	.	8d
=9	=9	=9	=9
8GG	4.r	8d 8B	8g
8G	.	8d 8B	8f#
8G	.	8d 8B	8g
8G	4.f#	4.c 4.d	4a
8G	.	.	.
8G	.	.	8dd
=10	=10	=10	=10
8GG	8g	8B 8d	8g
8G	4r	8d 8B	8f#
8G	.	8d 8B	8g
8G	4.f#	4.c 4.d	4a
8G	.	.	.
8G	.	.	8dd
=11	=11	=11	=11
8GG	8g	8d 8B	8g
8G	4r	8d 8B	8f#
8G	.	8d 8B	8g
4E	4.g	4e 4c	4cc
8C	.	8g	8ee
=12	=12	=12	=12
4BB	8b	4G	8dd
.	2r	.	8ff#
2r	.	2r	8gg
.	.	.	8bb
.	.	.	4r
.	8r	.	.
=13	=13	=13	=13
2.r	2.r	8b	8dd
.	.	16cc	16ee
.	.	16dd	16ff#
.	.	32ee	32gg
.	.	32ff#	32aa
.	.	32gg	32bb
.	.	32aa	32ccc
.	.	4bb	4ddd
.	.	8aa	8ccc
=14	=14	=14	=14
2.r	2.r	8gg	8bb
.	.	8ff#	8aa
.	.	8ee	8gg
.	.	8dd	8ff#
.	.	8cc	8ee
.	.	8b	8dd
=15	=15	=15	=15
8D	4.d	4a	4cc
8F#	.	.	.
8G	.	8g	8b
8C	4e	4e	8a
8AA	.	.	8cc
8D	8f#	8c	8f#
=16	=16	=16	=16
8GG	4.f#	4.c	4.a
8G	.	.	.
8G	.	.	.
8G	8g	8B	8g
8G	8r	4r	8r
8G	8d	.	8b
=17	=17	=17	=17
8GG	4f	2.r	4dd
8G	.	.	.
8G	8e	.	8cc
8G	8d	.	8b
8G	8c	.	8a
8G	8B	.	8g
=18	=18	=18	=18
8GG	8A	2r	8f#
8G	8B	.	8g
8G	8c	.	8a
8G	8B	.	8g
8G	4r	8r	8r
8G	.	8b	8dd
=19	=19	=19	=19
8GG	2.r	4dd	4ff
8G	.	.	.
8G	.	8cc	8ee
8G	.	8b	8dd
8G	.	8a	8cc
8G	.	8g	8b
=20	=20	=20	=20
8GG	2.r	8f#	8a
8G	.	8g	8b
8G	.	8a	8cc
4G	.	4g	4b
8r	.	8d	8dd
=21	=21	=21	=21
8r	8r	4g	4gg
8B	8d	.	.
8A	8c	8f#	8ff#
8r	8r	4a	4aa
8c	8e	.	.
8B	8d	8g#	8gg#
=22	=22	=22	=22
8r	8r	4b	4bb
8d	8f	.	.
8c	8e	8a	8aa
8r	8r	4cc	4ccc
8e	8g	.	.
8d	8f#	8b	8bb
=23	=23	=23	=23
4.c	2.e	8a	8aa
.	.	8a	8aa
.	.	8a	8aa
4.c#	.	8a	8aa
.	.	8b	8bb
.	.	8g	8gg
=24	=24	=24	=24
4d	[2.d	2.f#	8ff#
.	.	.	8aa
2r	.	.	8ccc#
.	.	.	8ddd
.	.	.	8aa
.	.	.	8ff#
=25	=25	=25	=25
2r	4.d]	2.e	8gg
.	.	.	8ff#
.	.	.	8gg
.	4.c#	.	8ee
8r	.	.	8aa
8AA	.	.	8gg
=26	=26	=26	=26
8D	8d	8f#	8ff#
8C#	8a	8e	8r
8D	8a	8f#	8dd
4E	4a	4g	8dd
.	.	.	8cc#
8A	8e	8c#	8gg
=27	=27	=27	=27
8D	8f#	8d	8ff#
8C#	8e	8a	8r
8D	8f#	8a	8dd
4E	4g	4a	8dd
.	.	.	8cc#
8A	8c#	8ee	8gg
=28	=28	=28	=28
8d	8d	4ff#	4ff#
8c#	8e	.	.
8d	8f#	8ff#	8aa
8d	8f#	8ff#	8aa
8e	8g	8ee	8gg
8f#	8a	8dd	8ff#
=29	=29	=29	=29
8g	8b	4b	8ee
8f#	8b	.	8dd#
8g	8b	8r	8ee
4.a	4.b	4.dd#	4ff#
.	.	.	8bb
=30	=30	=30	=30
8g	8b	8ee	8ee
8f#	8b	4r	8dd#
8g	8b	.	8ee
4.a	4.b	4.dd#	4ff#
.	.	.	8bb
=31	=31	=31	=31
8g	8b	8ee	8ee
8f#	8b	4r	8dd#
8g	8b	.	8ee
4.a	4.b	4.dd#	4ff#
.	.	.	8bb
=32	=32	=32	=32
8g	8b	8ee	8ee
8f#	8a	4r	8dd#
8g	8b	.	8ee
4e	4.a	4cc#	4gg
8d	.	8dd	8ff#
=33	=33	=33	=33
4.g	4.b	8dd	4.ee
.	.	8dd	.
.	.	8dd	.
4.g#	4.g#	8dd	8ff
.	.	8cc#	8ee
.	.	8dd	8ff
=34	=34	=34	=34
4a	4a	4cc#	8ee
.	.	.	8aa
2r	2r	8cc#	8aa
.	.	8b	8gg#
.	.	8dd	8bb
.	.	8g#	8ddd
=35	=35	=35	=35
4A	4e	8a	8ccc#
.	.	8cc#	8eee
2r	2r	8cc#	8aa
.	.	8b	8gg#
.	.	8dd	8bb
.	.	8g#	8dd
=36	=36	=36	=36
4A	4e	4a	8cc#
.	.	.	8ee
4.r	8c#	8e	8a
.	4B	4d	8g#
.	.	.	8b
8GG#	8G#	8B	8d
=37	=37	=37	=37
8AA	8A	8A	8A
8C#	8c#	8c#	8c#
8E	8e	8e	8e
8A	8a	8a	8a
8c#	8cc#	8cc#	8cc#
8e	8ee	8ee	8ee
=38	=38	=38	=38
4a	4a	4aa	4aa
2r	2r	2r	4.r
.	.	.	8a
=39	=39	=39	=39
4F#	8F#	8A	4dd
.	8A	8d	.
2r	8d	8f#	8dd
.	8f#	8a	8dd
.	8e	8g	8cc#
.	8d	8f#	8dd
=40	=40	=40	=40
4G	8G	8B	8dd
.	8B	8d	8b
2r	8d	8g	8b
.	8g	8b	4b
.	8e	8g	.
.	8d	8f#	8b
=41	=41	=41	=41
4AA	8c#	8e	8a
.	8g	8b	8cc#
2r	8f#	8a	8dd
.	8e	8g	8ee
.	8d	8f#	8ff#
.	8c#	8e	8gg
=42	=42	=42	=42
4.BB	4.c#	4.e	4.gg
4.r	8d	8f#	8ff#
.	4r	4r	8r
.	.	.	8a
=43	=43	=43	=43
8FF#	8A	2.r	4dd
8AA	8d	.	.
8D	8f#	.	8dd
8F#	8a	.	8dd
8E	8g	.	8cc#
8D	8f#	.	8dd
=44	=44	=44	=44
8GG	8G	8B	8dd
8BB	8B	8d	8b
8D	8d	8g	8b
8G	8g	8b	4b
8E	8e	8g	.
8D	8d	8f#	8b
=45	=45	=45	=45
8C#	8c#	4.e	8a
8G	8B	.	8cc#
8F#	8A	.	8dd
8E	8G	[4.A	8ee
8D	8F#	.	8ff#
8C#	8E	.	8gg
=46	=46	=46	=46
4D	4F#	8A]	8ff#
.	.	8d	8dd
8r	8r	8f#	8a
4C#	4A	8A	8gg
.	.	8e	8ee
8r	8r	8g	8a
=47	=47	=47	=47
4D	4A	8A	8ff#
.	.	8d	8dd
8r	8r	8f#	8a
4C#	4A	8A	8gg
.	.	8e	8ee
8r	8r	8g	8a
=48	=48	=48	=48
4D	4.A	4.f#	8ff#
.	.	.	8dd
8r	.	.	8aa
4F#	[4.d	4.dd	8aa
.	.	.	8aa
8r	.	.	8aa
=49	=49	=49	=49
2.G	4d]	2.b	8aa
.	.	.	8gg#
.	2r	.	8gg
.	.	.	8ff#
.	.	.	8ff
.	.	.	8ee
=50	=50	=50	=50
4A	8f#	8a	2.dd
.	8f#	8a	.
2r	8f#	8a	.
.	8f#	8a	.
.	8e	8g	.
.	8d	8f#	.
=51	=51	=51	=51
4AA	8c#	8e	2a
.	8e	8g	.
2r	8d	8f#	.
.	8c#	8e	.
.	8c#	8e	8b
.	8c#	8e	8g
=52	=52	=52	=52
4D	4d	8f#	8f#
.	.	4r	4r
2r	8r	.	.
.	4.c#	8a	4ee
.	.	8b	.
.	.	8g	8ee#
=53	=53	=53	=53
4.r	4d	8f#	8ff#
.	.	4r	4r
.	2r	.	.
8AA	.	4ee	4gg
8BB	.	.	.
8GG	.	8ee#	8gg#
=54	=54	=54	=54
4FF#	4d	4ff#	8aa
.	.	.	8ddd
2r	2r	2r	8ccc#
.	.	.	8ccc
.	.	.	8bb
.	.	.	8aa#
=55	=55	=55	=55
2.G	2.d	8r	[2.bb
.	.	8bb	.
.	.	8aa	.
.	.	8gg	.
.	.	8ff#	.
.	.	8ee	.
=56	=56	=56	=56
2.F#	2.a 2.B	2.dd#	8bb]
.	.	.	8ccc
.	.	.	8bb
.	.	.	8aa
.	.	.	8gg
.	.	.	8ff#
=57	=57	=57	=57
4E	4g	8r	8r
.	.	8ff#	8aa
8r	8r	8ee	8gg
4C#	4e	8r	8r
.	.	8gg	8bb
8r	8r	8ee	8gg
=58	=58	=58	=58
4D	4A	8r	8r
.	.	8ee	8gg
8r	8r	8dd	8ff#
4FF#	4d	8r	8r
.	.	8ff#	8aa
8r	8r	8a	8ff#
=59	=59	=59	=59
4GG	4d	4b	8ff#
.	.	.	8ee
8r	8r	8g	8bb
4AA	8c#	8g	8bb
.	8d	8f#	8aa
8r	8e	8e	8cc#
=60	=60	=60	=60
[2.DD	4f#	4.d	8dd
.	.	.	8a
.	8r	.	8a
.	4.F#	4.A	8a
.	.	.	8a
.	.	.	8a
=61	=61	=61	=61
2.DD_	4.G	4.B	8a
.	.	.	8g
.	.	.	8g
.	4.E	4.c#	8g
.	.	.	8b
.	.	.	8g
=62	=62	=62	=62
2.DD_	4.A	4.d	8f#
.	.	.	8f#
.	.	.	8f#
.	4.F#	4.A	8f#
.	.	.	8f#
.	.	.	8f#
=63	=63	=63	=63
2.DD_	2.G	4.B	8f#
.	.	.	8e
.	.	.	8e
.	.	4c#	8e
.	.	.	8a
.	.	8e	8c#
=64	=64	=64	=64
4DD]	4F#	4d	4d
8r	8r	8r	8r
4AA	4.G	4c#	8e
.	.	.	8a
8r	.	8e	8c#
=65	=65	=65	=65
4DD	4F#	4d	4d
8r	8r	8r	8r
4AA	4.G	4c#	8e
.	.	.	8a
8r	.	8e	8c#
=66	=66	=66	=66
4DD	4F#	4d	4d
2r	2r	2r	4.r
.	.	.	8dd
=67	=67	=67	=67
8g	4.b-	4.dd	8gg
8g	.	.	8ff#
8g	.	.	8gg
8g	4.cc	4.ff#	4aa
8g	.	.	.
8g	.	.	8ddd
=68	=68	=68	=68
8g	4b-	8gg	8gg
4.r	.	4.r	4.r
.	4r	.	.
8GG	8G	8G	8G
8AA	8A	8A	8A
=69	=69	=69	=69
8BB-	8B-	8B-	8B-
8C	8c	8c	8c
8D	8d	8d	8d
8E-	8e-	8e-	8e-
8F	8f	8f	8f
8G	8g	8g	8g
=70	=70	=70	=70
4A-	4a-	4a-	4a-
2r	2r	2r	4.r
.	.	.	8b-
=71	=71	=71	=71
8e-	4.g	4.b-	8ee-
8e-	.	.	8dd
8e-	.	.	8ee-
8e-	4.a-	4.dd	4ff
8e-	.	.	.
8e-	.	.	8bb-
=72	=72	=72	=72
8e-	4g	4ee-	8ee-
4.r	.	.	4.r
.	4r	4r	.
8c	8cc	8cc	8cc
8B-	8b-	8b-	8b-
=73	=73	=73	=73
8A-	8a-	8a-	8a-
8G	8g	8g	8g
8F	8f	8f	8f
8E-	8e-	8e-	8e-
8D	8d	8d	8d
8C	8c	8c	8c
=74	=74	=74	=74
4BB	4B	4B	4B
2r	2r	2r	4.r
.	.	.	8g
=75	=75	=75	=75
8c	4.e-	4.g	8cc
8c	.	.	8b
8c	.	.	8cc
8c	4.f	4.b	4dd
8c	.	.	.
8c	.	.	8gg
=76	=76	=76	=76
4.c	4e-	4cc	4cc
.	4.r	4.r	4.r
4r	.	.	.
8C	8c	8c	8c
=77	=77	=77	=77
8C	8c	8c	8c
8BB	8B	8B	8B
8BB	8B	8B	8B
8BB	8B	8B	8B
8BB-	8B-	8B-	8B-
8BB-	8B-	8B-	8B-
=78	=78	=78	=78
4AA	4A	4A	4A
2r	2r	2r	4.r
.	.	.	8a
=79	=79	=79	=79
8d	4.f	4.a	8dd
8d	.	.	8cc#
8d	.	.	8dd
8d	4.g	4.cc#	4ee
8d	.	.	.
8d	.	.	8aa
=80	=80	=80	=80
4d	4f	4dd	4dd
4.r	4.r	4.r	4.r
8D	8d	8d	8d
=81	=81	=81	=81
8D	8d	8d	8d
8C#	8c#	8c#	8c#
8C#	8c#	8c#	8c#
8C#	8c#	8c#	8c#
8C	8c	8c	8c
8C	8c	8c	8c
=82	=82	=82	=82
4BB	4B	4B	4B
2r	2r	4.r	2r
.	.	8b	.
=83	=83	=83	=83
4r	4.r	8ee	2.r
.	.	8dd#	.
8e	.	8ee	.
8e	4b	4ff#	.
8d#	.	.	.
8d	8f#	8bb	.
=84	=84	=84	=84
8d	8g#	4ee	2.r
8c#	8a	.	.
8c	8e	8aa	.
8c	8f#	4dd	.
8B	8g	.	.
8B	8d	8gg	.
=85	=85	=85	=85
4.A	4.c	8gg	2.r
.	.	8ff#	.
.	.	8ff#	.
4.G	4.B	8ff#	.
.	.	8ee	.
.	.	8ee	.
=86	=86	=86	=86
4F#	4A	8ee	2.r
.	.	8dd#	.
8E	8G	8ee	.
4.D#	4F#	8ff#	.
.	.	8dd#	.
.	8f#	8a	.
=87	=87	=87	=87
[2.E	8e	8g#	2.r
.	8g#	8b	.
.	8f#	8a	.
.	8a	8cc	.
.	8g#	8b	.
.	8b	8dd	.
=88	=88	=88	=88
2.E]	8a	8cc	2r
.	8cc	8ee	.
.	8b	8dd	.
.	8dd	8ff	.
.	8cc	8ee	8r
.	8b	8dd	8ee
=89	=89	=89	=89
4AA	4a	8cc	8aa
.	.	8ee	8gg#
2r	8a	8ee	8aa
.	8a	4.ee	4bb
.	8g#	.	.
.	8g	.	8eee
=90	=90	=90	=90
2.r	4f#	8ee	4aa
.	.	8dd#	.
.	8b	8dd	8ddd
.	4e	8dd	4gg
.	.	8cc#	.
.	8a	8cc	8ccc
=91	=91	=91	=91
2r	2.d#	8cc	[2.ff#
.	.	8a	.
.	.	8b	.
.	.	8cc	.
8r	.	8b	.
8BB	.	8a	.
=92	=92	=92	=92
8E	4e	4.g	4ff#]
8D#	.	.	.
8E	2r	.	4ee
4F#	.	[4.a	.
.	.	.	8dd#
8B	.	.	[8ff#
=93	=93	=93	=93
4.E	2r	8a]	8ff#]
.	.	8g	8ee
.	.	4b	4gg
4.D	.	.	.
.	8r	8a	8ff#
.	8f#	[8cc	[8aa
=94	=94	=94	=94
4.G	8d	8cc]	8aa]
.	8d	8b	8gg
.	4.r	4dd	4bb
4.F#	.	.	.
.	.	8cc#	8aa#
.	8F#	[8ee	[8ccc#
=95	=95	=95	=95
4.BB	8f#	8ee]	8ccc#]
.	8f#	8dd	8bb
.	4.r	4ff#	4ddd
4.AA	.	.	.
.	.	8ee	8ccc#
.	8a	[8gg	[8eee
=96	=96	=96	=96
4.D	8A	8gg]	8eee]
.	8A	8ff#	8ddd
.	8d	4aa	4ccc
4G	8d	.	.
.	8d	8gg	8bb
8BB	8G	8dd	[8ddd
=97	=97	=97	=97
4.C	4G	2.ee	8ddd]
.	.	.	8ccc
.	2r	.	4bb
4.C#	.	.	.
.	.	.	8aa
.	.	.	8gg
=98	=98	=98	=98
[2.D	4r	4dd	4ff#
.	8f#	8a	8dd
.	8g	8b-	4.cc#
.	8f#	8a	.
.	8g	8g	.
=99	=99	=99	=99
2.D_	4a	4f#	4.dd
.	8dd	8a	.
.	8g	8b-	4.cc#
.	8f#	8a	.
.	8g	8g	.
=100	=100	=100	=100
2.D_	4a	4f#	4.dd
.	8dd	8a	.
.	8g	8b-	4.cc#
.	8f#	8a	.
.	8g	8g	.
=101	=101	=101	=101
4D]	4f#	8f#	8dd
.	.	8e#	8g#
2r	8r	8f#	8a
.	4d	8r	8r
.	.	8f#	8a#
.	8r	8g	8b
=102	=102	=102	=102
2.r	4d	8r	8r
.	.	8g#	8b
.	8r	8a	8cc
.	4d	8r	8r
.	.	8a#	8cc#
.	8r	8b	8dd
=103	=103	=103	=103
2.r	4d	8r	8r
.	.	8b	8dd#
.	8r	8cc	8ee
.	4d	8r	8r
.	.	8b	8dd#
.	8r	8cc	8ee
=104	=104	=104	=104
2.r	4d	4.r	4.r
.	2r	.	.
.	.	4cc	4ee
.	.	8r	8r
=105	=105	=105	=105
2.r	4d	4.r	4.r
.	2r	.	.
.	.	4cc	4ee
.	.	8r	8r
=106	=106	=106	=106
2.r	2.r	2.r	2r
.	.	.	8r
.	.	.	8d
=107	=107	=107	=107
8GG	4.r	8d 8B	8g
8G	.	8d 8B	8f#
8G	.	8B 8d	8g
8G	4.f#	4.d 4.c	4a
8G	.	.	.
8G	.	.	8dd
=108	=108	=108	=108
8GG	8g	8d 8B	8g
8G	4r	8d 8B	8f#
8G	.	8B 8d	8g
8G	4.f#	4.d 4.c	4a
8G	.	.	.
8G	.	.	8dd
=109	=109	=109	=109
8GG	8g	8d 8B	8g
8G	4r	8d 8B	8f#
8G	.	8d 8B	8g
4E	4.g	4e 4c	4cc
8C	.	8g	8ee
=110	=110	=110	=110
4BB	8b	4G	8dd
.	2r	.	8ff#
2r	.	2r	8gg
.	.	.	8bb
.	.	.	4r
.	8r	.	.
=111	=111	=111	=111
2.r	2.r	8b	8dd
.	.	16cc	16ee
.	.	16dd	16ff#
.	.	16ee	16gg
.	.	16ff#	16aa
.	.	4gg	4bb
.	.	8ff#	8aa
=112	=112	=112	=112
2.r	2.r	8ee	8gg
.	.	8dd	8ff#
.	.	8cc	8ee
.	.	8b	8dd
.	.	8a	8cc
.	.	8g	8b
=113	=113	=113	=113
2.r	8D	4f#	4a
.	8d	.	.
.	8d	8g	8b
.	8d	8b	8dd
.	8d	8a	8cc
.	8d	8g	8b
=114	=114	=114	=114
2r	8D	4f#	4a
.	8d	.	.
.	8c#	8g	8b
.	4d	8f#	8a
8r	.	4r	4r
8D	8r	.	.
=115	=115	=115	=115
8G	8r	8B	4r
8F#	8d	8A	.
8G	8d	8B	8g
4A	4d	4c	8g
.	.	.	8f#
8d	8F#	8A	8cc
=116	=116	=116	=116
8G	8G	8B	8b
8F#	8d	8A	8r
8G	8d	8B	8g
4A	4d	4c	8g
.	.	.	8f#
8d	8F#	8A	8cc
=117	=117	=117	=117
8G	8G	4B	4b
8F#	8A	.	.
8G	8B	8b	8dd
8G	8B	8b	8dd
8A	8c	8a	8cc
8B	8d	8g	8b
=118	=118	=118	=118
8c	8e	4e	8a
8B	8e	.	8g#
8c	8e	8r	8a
4.d	4.e	4.g#	4b
.	.	.	8ee
=119	=119	=119	=119
8c	8e	8a	8a
8B	8e	4r	8g#
8c	8e	.	8a
4.d	4.e	4.g#	4b
.	.	.	8ee
=120	=120	=120	=120
8c	8e	8a	8a
8B	8e	4r	8g#
8c	8e	.	8a
4.d	4.e	4.g#	4b
.	.	.	8ee
=121	=121	=121	=121
8c	8e	4a	8a
8B	8e	.	8g#
8c	8e	8r	8a
4A	4.d	4f#	4cc
8G	.	8g	8b
=122	=122	=122	=122
4.c	4.e	8g	4.a
.	.	8g	.
.	.	8g	.
4.c#	4.c#	8g	8b-
.	.	8f#	8a
.	.	8g	8b-
=123	=123	=123	=123
4d	4d	4f#	8a
.	.	.	8dd
4.r	4.r	8f#	8dd
.	.	8e	8cc#
.	.	8g	8ee
8CC#	8C#	8c#	8gg
=124	=124	=124	=124
8DD	8D	8d	8ff#
8FF#	8F#	8f#	8f#
8AA	8A	8a	8a
8D	8d	8dd	8dd
8F#	8f#	8ff#	8ff#
8A	8a	8aa	8aa
=125	=125	=125	=125
4d	4dd	4ddd	4ddd
2r	2r	2r	4.r
.	.	.	8dd
=126	=126	=126	=126
4BB	8B	8d	4gg
.	8d	8g	.
2r	8g	8b	8gg
.	8b	8dd	8gg
.	8a	8cc	8ff#
.	8g	8b	8gg
=127	=127	=127	=127
4C	8c	8e	8gg
.	8e	8g	8ee
2r	8g	8cc	8ee
.	8cc	8ee	4ee
.	8a	8cc	.
.	8g	8b	8ee
=128	=128	=128	=128
4D	8f#	8a	8dd
.	8cc	8ee	8ff#
2r	8b	8dd	8gg
.	8a	8cc	8aa
.	8g	8b	8bb
.	8f#	8a	8ccc
=129	=129	=129	=129
4.E	4.f#	4.a	4.ccc
4.r	8g	8b	8bb
.	4r	4r	8r
.	.	.	8dd
=130	=130	=130	=130
8BB	8d	2.r	4gg
8D	8g	.	.
8G	8b	.	8gg
8B	8dd	.	8gg
8A	8cc	.	8ff#
8G	8b	.	8gg
=131	=131	=131	=131
8C	8c	8e	8gg
8E	8e	8g	8ee
8G	8g	8cc	8ee
8c	8cc	8ee	4ee
8A	8a	8cc	.
8G	8g	8b	8ee
=132	=132	=132	=132
8F#	8f#	4.a	8dd
8c	8e	.	8ff#
8B	8d	.	8gg
8A	8c	[4.d	8aa
8G	8B	.	8bb
8F#	8A	.	8ccc
=133	=133	=133	=133
4G	4B	8d]	8bb
.	.	8g	8gg
8r	8r	8b	8dd
4F#	4d	8d	8ccc
.	.	8a	8aa
8r	8r	8cc	8dd
=134	=134	=134	=134
4G	4d	8d	8bb
.	.	8g	8gg
8r	8r	8b	8dd
4F#	4d	8d	8ccc
.	.	8a	8aa
8r	8r	8cc	8dd
=135	=135	=135	=135
4G	4.d	4.b	8bb
.	.	.	8dd
8r	.	.	8ddd
4.BB	8G	4.gg	8ddd
.	8g	.	8ddd
.	8g	.	8ddd
=136	=136	=136	=136
2.C	4g	2.ee	8ddd
.	.	.	8ccc#
.	2r	.	8ccc
.	.	.	8bb
.	.	.	8bb-
.	.	.	8aa
=137	=137	=137	=137
4D	8b	8dd	2.gg
.	8b	8dd	.
2r	8b	8dd	.
.	8b	8dd	.
.	8a	8cc	.
.	8g	8b	.
=138	=138	=138	=138
4D	8f#	8a	2dd
.	8a	8cc	.
2r	8g	8b	.
.	8f#	8a	.
.	8f#	8a	8ee
.	8f#	8a	8cc
=139	=139	=139	=139
4G	4g	4g	4b
2r	8r	8r	8r
.	4.f#	8dd	4aa
.	.	8ee	.
.	.	8cc	8aa#
=140	=140	=140	=140
2.r	4g	4b	4bb
.	8r	8r	8r
.	4.d#	8b	4.ff#
.	.	8cc	.
.	.	8a	.
=141	=141	=141	=141
2.r	4e	4g	8gg
.	.	.	4r
.	8r	8r	.
.	4.B	8g	4dd
.	.	8a	.
.	.	8f	8dd#
=142	=142	=142	=142
2.r	8c	8e	8ee
.	4r	4r	4r
.	8e	4.g#	4.b
.	8f	.	.
.	8d	.	.
=143	=143	=143	=143
4.r	8c	8a	8cc
.	2r	4r	4r
8D	.	4.f#	4.a
8E	.	.	.
8C	8r	.	.
=144	=144	=144	=144
2.BB	4.d	2.g	8b
.	.	.	8gg
.	.	.	8ff#
.	4.g	.	8ff
.	.	.	8ee
.	.	.	8dd#
=145	=145	=145	=145
4C	4e	8r	8r
.	.	8d#	8dd#
8r	8r	8e	8ee
4C	4e	8r	8r
.	.	8a	8aa
8r	8r	8g#	8gg#
=146	=146	=146	=146
4C	4e	8r	8r
.	.	8b	8bb
8r	8r	8a	8aa
4C	4e	8r	8r
.	.	8cc	8ccc
8r	8r	8b	8bb
=147	=147	=147	=147
4C	4e	8r	8r
.	.	8b	8bb
8r	8r	8a	8aa
4C#	4e	8r	8r
.	.	8a	8aa
8r	8r	8g	8gg
=148	=148	=148	=148
[2.D	4d	8dd	4ff#
.	.	8cc#	.
.	8dd	8dd	2r
.	8dd	4ee	.
.	8cc#	.	.
.	8cc	8aa	.
=149	=149	=149	=149
2.D_	8cc	4dd	2r
.	8b	.	.
.	8b	8gg	.
.	8b	4cc	.
.	8a	.	8r
.	8f#	8dd	8dd
=150	=150	=150	=150
2.D_	4g	4b	8gg
.	.	.	8ff#
.	4.r	8gg	8gg
.	.	8gg	4aa
.	.	8ff#	.
.	8b	8ff	8ddd
=151	=151	=151	=151
2.D_	4cc	8ff	4gg
.	.	8ee	.
.	8a	8ee	8ccc
.	4b	8ee	4ff#
.	.	8dd#	.
.	8g#	8dd	8bb
=152	=152	=152	=152
2.D_	4a	8dd	4ee
.	.	8cc#	.
.	8f#	8cc	8aa
.	4g	8cc	4dd
.	.	8b	.
.	8b	8dd	8gg
=153	=153	=153	=153
4D]	4a	4cc	8gg
.	.	.	8ff#
4.r	8g	8b	8ee
.	4.f#	4.a	8ee
.	.	.	8dd
8DD	.	.	8cc
=154	=154	=154	=154
8GG	4g	4b	4b
8FF#	.	.	.
8GG	8g	8b	2r
4AA	8g	8cc	.
.	8f#	8b	.
8D	8f#	8cc	.
=155	=155	=155	=155
4GG	8f#	4b	2.r
.	8e	.	.
8C	8e	8ee	.
4FF#	8e	4a	.
.	8d	.	.
8BB	8d	8dd	.
=156	=156	=156	=156
4EE	8d	4g	2r
.	8c	.	.
8AA	8c	8cc	.
4DD	8c	4f#	.
.	8B	.	8r
8GG	8B	8b	8B
=157	=157	=157	=157
8CC	8c	8e	8A
8CC	8A	8e	8c
8CC	8A	8e	8e
8CC	8A	8e	8a
8CC	8A	8e	8cc
8CC	8A	8e	8ee
=158	=158	=158	=158
8CC#	8e	8g 8B-	8c#
8CC#	8e	8B- 8g	8e
8CC#	8e	8g 8B-	8g
8CC#	8e	8g 8B-	8b-
8CC#	8e	8B- 8g	8cc#
8CC#	8e	8g 8B-	8ee
=159	=159	=159	=159
8DD	8d	8g 8B	8d
8DD	8d	8g 8B	8g
8DD	8d	8g 8B	8b
8DD	8d	8g 8B	8dd
8DD	8d	8B 8g	8gg
8DD	8d	8g 8B	8bb
=160	=160	=160	=160
4DD	4d	4A 4f#	4ddd
8r	8r	8r	8r
4DD	4c	4A 4f#	4ff#
8r	8r	8r	8r
=161	=161	=161	=161
[2.GG	4.B	4.G	8gg
.	.	.	8dd
.	.	.	8dd
.	4.B	4.d	8dd
.	.	.	8dd
.	.	.	8dd
=162	=162	=162	=162
2.GG_	4.c	4.e	8dd
.	.	.	8cc
.	.	.	8cc
.	4.A	4.f#	8cc
.	.	.	8ee
.	.	.	8cc
=163	=163	=163	=163
2.GG_	4.d	4.g	8b
.	.	.	8b
.	.	.	8b
.	4.B	4.d	8b
.	.	.	8b
.	.	.	8b
=164	=164	=164	=164
2.GG_	2.c	4.e	8b
.	.	.	8a
.	.	.	8a
.	.	4f#	8a
.	.	.	8dd
.	.	8a	8f#
=165	=165	=165	=165
4GG]	4B	4g	4g
2r	2r	8r	8r
.	.	8f#	8a
.	.	8a	8cc
.	.	8f#	8a#
=166	=166	=166	=166
2.r	2.r	8g	4b
.	.	4r	.
.	.	.	8r
.	.	8a	8cc
.	.	8cc	8ee
.	.	8a#	8cc#
=167	=167	=167	=167
4.r	4.r	8b	8dd
.	.	2r	2r
8F#	8A	.	.
8A	8c	.	.
8F#	8A#	8r	8r
=168	=168	=168	=168
8G	8B	2.r	2.r
4r	4r	.	.
8A	8c	.	.
8c	8e	.	.
8A#	8c#	.	.
=169	=169	=169	=169
4B	4d	2.r	2r
2r	2r	.	.
.	.	.	8r
.	.	.	8dd
=170	=170	=170	=170
8GG	4.r	8d 8b	8gg
8G	.	8d 8b	8ff#
8G	.	8b 8d	8gg
8G	4.f#	4.d 4.cc	4aa
8G	.	.	.
8G	.	.	8ddd
=171	=171	=171	=171
8GG	4g	8b 8d	8gg
8G	.	8b 8d	8ff#
8G	8r	8d 8b	8gg
8G	4.f#	4.cc 4.d	4aa
8G	.	.	.
8G	.	.	8ddd
=172	=172	=172	=172
4G	4g	4b 4d	8bb
.	.	.	8ggg
2r	2r	2r	8ggg
.	.	.	8ggg
.	.	.	8ggg
.	.	.	8ggg
=173	=173	=173	=173
4G	4g	4b 4d	8ggg
.	.	.	8ddd
2r	2r	2r	8bbb
.	.	.	8bbb
.	.	.	8bbb
.	.	.	8bbb
=174	=174	=174	=174
4G	4g	4b 4d	8bbb
.	.	.	8ggg
2r	2r	2r	8dddd
.	.	.	8dddd
.	.	.	8dddd
.	.	.	8dddd
=175	=175	=175	=175
4G	4g	4b 4d	4dddd
4.r	4.r	4.r	4.r
8BB	8B	8B	8B
=176	=176	=176	=176
8C	8c	8c	8c
8BB	8B	8B	8B
8C	8c	8c	8c
4AA	4A	4A	4A
8D	8d	8d	8d
=177	=177	=177	=177
8GG	8G	8G	8G
4r	4r	4r	4r
4DD	4F#	4.c	8a
.	.	.	8dd
8r	8A	.	8f#
=178	=178	=178	=178
4GG	4G	4B	8g
.	.	.	4r
8r	8r	8r	.
4DD	4F#	4.c	8a
.	.	.	8dd
8r	8A	.	8f#
=179	=179	=179	=179
4GG	4G	4B	4g
2r	2r	2r	2r
==	==	==	==
*-	*-	*-	*-
!!!RWG1: This file contains only pitch and duration data.
!!!RWG2: Transposing instruments are not transposed.
!!!RWG3: Spines may have incompatible meters.
!!!RWG4: Durations of rests and tied notes may be interpreted.
!!!RWG: Key is interpreted using the Humdrum key tool.
!!!GTL: 6 Quartetti ("Tost III")
!!!AFT: stage1
!!!END: 1997/04/15
!!!KEY: 2805319787
!!!EMD: Converted from MuseData to Humdrum Dec 16, 2000, by Andreas Kornstaedt using muse2kern.
!!!EMD: Manual editing by Craig Sapp, Nov 2001
